flags/bh.svg

<svg width="512" height="512" viewBox="0 0 512 512" fill="none" xmlns="http://www.w3.org/2000/svg">
<path d="M0 512H284.939V0H0V512Z" fill="var(--flag-palette-white, #eeeeee)"/>
<path d="M100.267 512H512V0H100.267L228.267 51.2L100.267 102.4L228.267 153.6L100.267 204.8L228.267 256L100.267 307.2L228.267 358.4L100.267 409.6L228.267 460.8L100.267 512Z" fill="var(--flag-palette-bright-red, #d80027)"/>
</svg>

<svg xmlns="http://www.w3.org/2000/svg" width="512" height="512" fill="none"><path fill="var(--flag-palette-white, #eeeeee)" d="M0 512h285V0H0z"/><path fill="var(--flag-palette-bright-red, #d80027)" d="M100.3 512H512V0H100.3l128 51.2-128 51.2 128 51.2-128 51.2 128 51.2-128 51.2 128 51.2-128 51.2 128 51.2z"/></svg>
